X:1
T:Pekin, SM
T:Pekin, SM
T:Arr J. E. Kingsley, 1847, from German chorale 
T:Public Domain Courtesy of the Cyber Hymnal™
C:Arr J. E. Kingsley, 1847, from German chorale
Z:Public Domain
Z:Courtesy of the Cyber Hymnal™
%%score ( 1 2 ) ( 3 4 )
L:1/8
Q:1/4=110
M:4/4
K:G
V:1 treble 
V:2 treble 
V:3 bass 
V:4 bass 
V:1
 (Bc) | [Dd]2 G2 [EA]2 [DF]2 | [DG]6 [B,G]2 | [DA]2 [DB]2 [Ec]2 [Dc]2 | [DB]6 [DB]2 | %5
 [DA]2 [Dd]2 [DB]2 [Ge]2 | [Ed]2 [E^c]2 [Fd]2 [Gd]2 | [Ge]2 [GA]2 [GB]2 [FA]2 | G6 |] %9
V:2
 D2 | x2 G2 x4 | x8 | x8 | x8 | x8 | x8 | x8 | G6 |] %9
V:3
 (G,A,) | [G,B,]2 [B,,D]2 [C,C]2 [D,A,]2 | [G,,B,]6 [E,G,]2 | [D,F,]2 [B,,G,]2 [A,,G,]2 [D,F,]2 | %4
 [G,,G,]6 G,2 | [D,F,]2 [F,A,]2 G,2 [E,B,]2 | A,2 [A,,A,]2 [D,A,]2 [G,B,]2 | %7
 [C,C]2 [^C,E]2 [D,D]2 [D,D]2 | [G,,B,]6 |] %9
V:4
 G,2 | x8 | x8 | x8 | x6 G,2 | x4 G,2 x2 | A,2 x6 | x8 | x6 |] %9

